X: 2
T: Artsa Alinu
M: C
L: 1/8
K: Cm
|: "Cm"CG2F G2F2 | "Fm"EF2E F2E2 | "Cm"CC2B, "G7"(E2D2) | "Cm"C6 z2 :: "Eb"G3A B2c2 |
| "Cm"GG2F (GF)E2 :| "Fm"EF2E F2E2 | "Cm"C4 C4 | "Gm"B,C2B, "G7"(E2D2) | "Cm"C4 C4 |]
%%sep 2 1 500
